Facilitet_punkt_5800_Piktogrammer/Cirkel/SVG/CYKELPUMPESTATION-SERVICE.svg

<svg xmlns="http://www.w3.org/2000/svg" width="5.5mm" height="5.5mm" viewBox="0 0 15.591 15.591">
  <rect width="15.591" height="15.591" rx="7.795" fill="#031E3A"/>
  <g>
    <path d="M5.538,10.238a3.515,3.515,0,0,0,1.047-.159.607.607,0,1,1,.935-.51.561.561,0,0,1-.006.059,3.515,3.515,0,1,0-1.976.61ZM3.717,8.681,4.8,7.6a1.083,1.083,0,0,0,.11.082L4.18,9.027A2.711,2.711,0,0,1,3.717,8.681ZM5.44,9.4a2.665,2.665,0,0,1-1.087-.274l.726-1.343a1.141,1.141,0,0,0,.361.091Zm.2,0V7.869a1.236,1.236,0,0,0,.136-.019L6.21,9.315A2.657,2.657,0,0,1,5.637,9.4Zm1.34-1.049a.694.694,0,0,0-.681.566l-.334-1.12A1.132,1.132,0,0,0,6.281,7.6l.752.752A.535.535,0,0,0,6.977,8.347Zm.522.194L6.421,7.463a1.256,1.256,0,0,0,.082-.11l1.344.726A2.663,2.663,0,0,1,7.5,8.541Zm.442-.636L6.6,7.179a1.141,1.141,0,0,0,.091-.361H8.214A2.673,2.673,0,0,1,7.941,7.905Zm.273-1.284H6.688a1.2,1.2,0,0,0-.019-.136L8.13,6.049A2.632,2.632,0,0,1,8.214,6.621Zm-.139-.762L6.611,6.3a1.129,1.129,0,0,0-.19-.319L7.5,4.9A2.679,2.679,0,0,1,8.075,5.859Zm-.716-1.1L6.281,5.837a1.122,1.122,0,0,0-.11-.082L6.9,4.413A2.711,2.711,0,0,1,7.359,4.759ZM5.637,4.044a2.678,2.678,0,0,1,1.086.275L6,5.661a1.148,1.148,0,0,0-.361-.091ZM5.894,6.72a.356.356,0,1,1-.356-.356A.356.356,0,0,1,5.894,6.72ZM5.44,4.044V5.57a1.2,1.2,0,0,0-.136.019L4.867,4.128A2.713,2.713,0,0,1,5.44,4.044Zm-.762.139.437,1.463a1.176,1.176,0,0,0-.32.191L3.717,4.759A2.679,2.679,0,0,1,4.678,4.183Zm-1.1.715L4.656,5.977a.982.982,0,0,0-.082.11L3.231,5.361A2.711,2.711,0,0,1,3.577,4.9Zm-.439.637L4.48,6.26a1.121,1.121,0,0,0-.091.361H2.863A2.646,2.646,0,0,1,3.138,5.535ZM2.863,6.818H4.389a1.012,1.012,0,0,0,.019.136L2.946,7.39A2.694,2.694,0,0,1,2.863,6.818Zm1.6.325a1.151,1.151,0,0,0,.191.32L3.577,8.541A2.691,2.691,0,0,1,3,7.58Z" fill="#fff"/>
    <path d="M12.744,3.07H11.186V2.811H10.31V3.07H8.753a.43.43,0,0,0,0,.86H10.31v.162h.241V6.977h-.545a.2.2,0,0,0-.2.2V11.7H9.533a.5.5,0,0,0-.46.315H3.545a.314.314,0,0,1,0-.628H6.176a.951.951,0,0,0,.95-.949V9.918a.41.41,0,1,0-.4.017v.5a.555.555,0,0,1-.555.554H3.545a.709.709,0,0,0,0,1.418H9.057a.5.5,0,0,0,.48.368h2.294a.5.5,0,0,0,.5-.5V12.2a.5.5,0,0,0-.5-.5h-.147V7.174a.2.2,0,0,0-.2-.2h-.545V4.092h.24V3.93h1.558a.43.43,0,1,0,0-.86Z" fill="#fff"/>
  </g>
</svg>

<?xml version="1.0" encoding="UTF-8"?>
<svg xmlns="http://www.w3.org/2000/svg" viewBox="0 0 15.59 15.59">
  <defs>
    <style>
      .cls-1 {
        fill: #071f39;
      }

      .cls-1, .cls-2 {
        stroke-width: 0px;
      }

      .cls-2 {
        fill: #fff;
      }
    </style>
  </defs>
  <g id="Cirkel">
    <rect class="cls-1" x="0" y="0" width="15.59" height="15.59" rx="7.8" ry="7.8"/>
  </g>
  <g id="ICONS">
    <g>
      <path class="cls-2" d="M5.54,10.24c.36,0,.72-.06,1.05-.16-.17-.11-.28-.3-.28-.51,0-.33.27-.61.61-.61s.61.27.61.61c0,.02,0,.04,0,.06.93-.63,1.54-1.7,1.54-2.91,0-1.94-1.58-3.52-3.52-3.52s-3.52,1.58-3.52,3.52,1.58,3.52,3.52,3.52ZM3.72,8.68l1.08-1.08s.07.06.11.08l-.73,1.34c-.17-.1-.32-.21-.46-.35ZM5.44,9.4c-.39-.01-.76-.11-1.09-.27l.73-1.34c.11.05.23.08.36.09v1.53ZM5.64,9.4v-1.53s.09,0,.14-.02l.44,1.46c-.19.05-.38.07-.57.08ZM6.98,8.35c-.34,0-.62.24-.68.57l-.33-1.12c.12-.05.22-.11.32-.19l.75.75s-.04,0-.06,0ZM7.5,8.54l-1.08-1.08s.06-.07.08-.11l1.34.73c-.1.16-.21.32-.35.46ZM7.94,7.91l-1.34-.73c.05-.11.08-.23.09-.36h1.53c-.01.38-.11.75-.27,1.09ZM8.21,6.62h-1.53s0-.09-.02-.14l1.46-.44c.05.18.08.38.08.57ZM8.07,5.86l-1.46.44c-.05-.12-.11-.22-.19-.32l1.08-1.08c.25.27.45.6.58.96ZM7.36,4.76l-1.08,1.08s-.07-.06-.11-.08l.72-1.34c.17.1.32.21.46.35ZM5.64,4.04c.39.01.76.11,1.09.27l-.72,1.34c-.11-.05-.23-.08-.36-.09v-1.53ZM5.89,6.72c0,.2-.16.36-.36.36s-.36-.16-.36-.36.16-.36.36-.36.36.16.36.36ZM5.44,4.04v1.53s-.09,0-.14.02l-.44-1.46c.18-.05.38-.08.57-.08ZM4.68,4.18l.44,1.46c-.12.05-.22.11-.32.19l-1.08-1.08c.27-.25.6-.45.96-.58ZM3.58,4.9l1.08,1.08s-.06.07-.08.11l-1.34-.73c.1-.17.21-.32.35-.46ZM3.14,5.53l1.34.73c-.05.11-.08.23-.09.36h-1.53c.01-.39.11-.76.27-1.09ZM2.86,6.82h1.53s0,.09.02.14l-1.46.44c-.05-.18-.08-.38-.08-.57ZM4.47,7.14c.05.12.11.22.19.32l-1.08,1.08c-.25-.27-.45-.6-.58-.96l1.46-.44Z"/>
      <path class="cls-2" d="M12.74,3.07h-1.56v-.26h-.88v.26h-1.56c-.24,0-.43.19-.43.43s.19.43.43.43h1.56v.16h.24v2.88h-.54c-.11,0-.2.09-.2.2v4.53h-.28c-.21,0-.39.13-.46.32H3.54c-.17,0-.31-.14-.31-.31s.14-.31.31-.31h2.63c.52,0,.95-.43.95-.95v-.52c.12-.07.2-.2.2-.35,0-.23-.18-.41-.41-.41s-.41.18-.41.41c0,.16.09.3.23.37v.51c0,.31-.25.55-.55.55h-2.63c-.39,0-.71.32-.71.71s.32.71.71.71h5.51c.06.21.25.37.48.37h2.29c.28,0,.5-.22.5-.5v-.08c0-.27-.22-.5-.5-.5h-.15v-4.53c0-.11-.09-.2-.2-.2h-.54v-2.88h.24v-.16h1.56c.24,0,.43-.19.43-.43s-.19-.43-.43-.43Z"/>
    </g>
  </g>
</svg>
